polaris-icons/icons/newicons/ArrowRightMinor.svg

<svg width="20" height="20" viewBox="0 0 20 20" fill="none" xmlns="http://www.w3.org/2000/svg">
<path fill-rule="evenodd" clip-rule="evenodd" d="M2.99957 10C2.99957 9.58578 3.33536 9.25 3.74957 9.25L14.3587 9.25L11.4856 6.54617C11.1839 6.2623 11.1695 5.78764 11.4534 5.486C11.7373 5.18436 12.2119 5.16995 12.5136 5.45382L16.764 9.45382C16.9146 9.59556 17 9.79319 17 10C17 10.2068 16.9146 10.4044 16.764 10.5462L12.5136 14.5462C12.2119 14.83 11.7373 14.8156 11.4534 14.514C11.1695 14.2124 11.1839 13.7377 11.4856 13.4538L14.3587 10.75L3.74957 10.75C3.33536 10.75 2.99957 10.4142 2.99957 10Z" fill="black"/>
</svg>

<svg viewBox="0 0 20 20" fill="none" xmlns="http://www.w3.org/2000/svg"><path fill-rule="evenodd" clip-rule="evenodd" d="M3 10a.75.75 0 0 1 .75-.75h10.609l-2.873-2.704a.75.75 0 1 1 1.028-1.092l4.25 4a.75.75 0 0 1 0 1.092l-4.25 4a.75.75 0 0 1-1.028-1.092l2.873-2.704h-10.61a.75.75 0 0 1-.75-.75Z" fill="#000"/></svg>
